X: 94
T:Untitled. HA.093
M:C|
Q:180
C:in Hand C
S:Henry Atkinson's original MS,Hartburn,N'umberland,1694.
O:England
A:Hartburn,Northumberland
N:I don't feel as if I've quite got this one.CGP
H:1/8
Z:vmp.Chris Partington.Jan.2004
K:F
A3B=B3A/B/|c3cc4|d3dd3e/f/|e2(dc)f3f|!
g3gg3(f/g/)|a6f>e|d3db3b|b3c'a3a|!
a3fa3a|g3a^f3e/f/|a3d_e3e|!
e3fd3c|=B3Ac4-|c3dd3c|c8|]
